svg/SJJB-OpenStreetMapIcons/place_of_worship/sikh.svg

<?xml version="1.0" encoding="UTF-8" standalone="no"?>
<!-- Created with Inkscape (http://www.inkscape.org/) -->
<svg
   xmlns:dc="http://purl.org/dc/elements/1.1/"
   xmlns:cc="http://creativecommons.org/ns#"
   xmlns:rdf="http://www.w3.org/1999/02/22-rdf-syntax-ns#"
   xmlns:svg="http://www.w3.org/2000/svg"
   xmlns="http://www.w3.org/2000/svg"
   xmlns:sodipodi="http://sodipodi.sourceforge.net/DTD/sodipodi-0.dtd"
   xmlns:inkscape="http://www.inkscape.org/namespaces/inkscape"
   version="1.0"
   width="580"
   height="580"
   id="svg2"
   sodipodi:version="0.32"
   inkscape:version="0.46"
   sodipodi:docname="place_of_worship_sikh.svg"
   sodipodi:docbase="s:\Data\FacilityIcons"
   inkscape:output_extension="org.inkscape.output.svg.inkscape">
  <metadata
     id="metadata2975">
    <rdf:RDF>
      <cc:Work
         rdf:about="">
        <dc:format>image/svg+xml</dc:format>
        <dc:type
           rdf:resource="http://purl.org/dc/dcmitype/StillImage" />
			  <cc:license
           rdf:resource="http://web.resource.org/cc/PublicDomain" />
        <dc:language>en</dc:language>
      </cc:Work>
    </rdf:RDF>
  </metadata>
  <sodipodi:namedview
     inkscape:window-height="1003"
     inkscape:window-width="1400"
     inkscape:pageshadow="2"
     inkscape:pageopacity="0.0"
     guidetolerance="10.0"
     gridtolerance="10.0"
     objecttolerance="10.0"
     borderopacity="1.0"
     bordercolor="#666666"
     pagecolor="#ffffff"
     id="base"
     inkscape:zoom="0.65172414"
     inkscape:cx="-57.954519"
     inkscape:cy="172.10413"
     inkscape:window-x="0"
     inkscape:window-y="20"
     inkscape:current-layer="svg2"
     showgrid="false" />
  <defs
     id="defs4">
    <inkscape:perspective
       sodipodi:type="inkscape:persp3d"
       inkscape:vp_x="0 : 290 : 1"
       inkscape:vp_y="0 : 1000 : 0"
       inkscape:vp_z="580 : 290 : 1"
       inkscape:persp3d-origin="290 : 193.33333 : 1"
       id="perspective2441" />
    <inkscape:perspective
       id="perspective2466"
       inkscape:persp3d-origin="372.04724 : 350.78739 : 1"
       inkscape:vp_z="744.09448 : 526.18109 : 1"
       inkscape:vp_y="0 : 1000 : 0"
       inkscape:vp_x="0 : 526.18109 : 1"
       sodipodi:type="inkscape:persp3d" />
    <inkscape:perspective
       id="perspective3333"
       inkscape:persp3d-origin="372.04724 : 350.78739 : 1"
       inkscape:vp_z="744.09448 : 526.18109 : 1"
       inkscape:vp_y="0 : 1000 : 0"
       inkscape:vp_x="0 : 526.18109 : 1"
       sodipodi:type="inkscape:persp3d" />
    <inkscape:perspective
       id="perspective3401"
       inkscape:persp3d-origin="372.04724 : 350.78739 : 1"
       inkscape:vp_z="744.09448 : 526.18109 : 1"
       inkscape:vp_y="0 : 1000 : 0"
       inkscape:vp_x="0 : 526.18109 : 1"
       sodipodi:type="inkscape:persp3d" />
    <inkscape:perspective
       id="perspective3464"
       inkscape:persp3d-origin="372.04724 : 350.78739 : 1"
       inkscape:vp_z="744.09448 : 526.18109 : 1"
       inkscape:vp_y="0 : 1000 : 0"
       inkscape:vp_x="0 : 526.18109 : 1"
       sodipodi:type="inkscape:persp3d" />
    <inkscape:perspective
       id="perspective3581"
       inkscape:persp3d-origin="225 : 150 : 1"
       inkscape:vp_z="450 : 225 : 1"
       inkscape:vp_y="0 : 1000 : 0"
       inkscape:vp_x="0 : 225 : 1"
       sodipodi:type="inkscape:persp3d" />
    <inkscape:perspective
       id="perspective4312"
       inkscape:persp3d-origin="225 : 150 : 1"
       inkscape:vp_z="450 : 225 : 1"
       inkscape:vp_y="0 : 1000 : 0"
       inkscape:vp_x="0 : 225 : 1"
       sodipodi:type="inkscape:persp3d" />
  </defs>
  <g
     id="g1327">
    <path
       d="M 66.275,1.768 C 24.94,1.768 1.704,23.139 1.704,66.804 L 1.704,516.927 C 1.704,557.771 22.599,579.156 63.896,579.156 L 515.92,579.156 C 557.227,579.156 578.149,558.841 578.149,516.927 L 578.149,66.804 C 578.149,24.203 557.227,1.768 514.628,1.768 C 514.624,1.768 66.133,1.625 66.275,1.768 z "
       style="fill:#111;stroke:#eee;stroke-width:3.40799999"
       id="path1329" />
  </g>
  <rect
     style="opacity:0.25;fill:#ffffff;fill-opacity:1;stroke:#ffffff;stroke-width:20.13593864;stroke-linecap:round;stroke-linejoin:round;stroke-miterlimit:4;stroke-dasharray:none;stroke-dashoffset:0;stroke-opacity:1"
     id="rect3585"
     width="168.92059"
     height="168.92059"
     x="207.05904"
     y="373.00064"
     ry="0" />
  <rect
     ry="0"
     y="373.00064"
     x="207.05904"
     height="168.92059"
     width="168.92059"
     id="rect3587"
     style="fill:none;fill-opacity:1;stroke:#ffffff;stroke-width:20.13593864;stroke-linecap:round;stroke-linejoin:round;stroke-miterlimit:4;stroke-dasharray:none;stroke-dashoffset:0;stroke-opacity:1" />
  <path
     sodipodi:nodetypes="cssssscccssssssssssssssssssssssssssssssssssssssssscccsssssssccssssccscccsc"
     id="path1873"
     d="M 278.70479,349.14239 C 272.11319,340.76251 271.82083,337.60719 277.00141,330.75784 C 280.62405,325.96827 282.76131,303.24736 279.58919,303.24736 C 278.79264,303.24736 274.79772,304.9762 270.7116,307.08922 C 264.75237,310.17085 263.53909,312.27462 264.58022,317.72081 C 266.97081,330.22653 250.67509,340.33638 242.04214,331.7034 C 232.74281,322.4041 242.6214,301.55302 260.69478,292.33268 L 271.52615,286.80691 L 264.29977,283.02063 C 257.29094,279.34835 256.63447,279.63549 242.49488,292.55827 C 227.66185,306.11484 220.43663,309.14169 220.43663,301.79911 C 220.43663,295.68156 213.31972,282.83627 199.3418,263.72509 C 175.00641,230.45279 164.34738,201.25921 164.22829,167.55422 C 164.11931,136.72152 176.22488,112.15722 200.02487,94.916573 C 217.55738,82.216116 228.40774,86.7318 213.59883,100.56578 C 194.69029,118.22952 188.51591,141.21929 195.10456,169.42779 C 201.00598,194.69393 208.71593,209.45228 225.46455,227.54279 C 238.93142,242.08862 273.56131,268.99472 278.81582,268.99472 C 280.03772,268.99472 281.03745,266.13595 281.03745,262.64189 C 281.03745,255.93346 269.50401,244.35865 259.7278,241.25578 C 255.1462,239.80165 254.46752,238.06752 255.7677,231.13702 C 257.18573,223.57828 256.42024,222.27958 247.81576,217.64578 C 236.32321,211.45662 222.54525,195.17955 215.32316,179.25951 C 207.92986,162.96207 207.92986,129.98927 215.32316,113.69184 C 222.54166,97.779698 236.32166,81.495573 247.79864,75.31479 C 254.45532,71.729935 256.88465,68.88001 255.90768,65.801831 C 254.97045,62.848858 258.7466,57.640929 267.41776,49.927577 C 274.51548,43.613894 282.39839,35.187534 284.93532,31.202371 C 291.08246,21.546131 294.4033,22.052622 303.40461,34.019229 C 307.56765,39.553665 315.56777,47.537507 321.1827,51.761068 C 328.11061,56.972265 330.99761,60.947152 330.16556,64.128879 C 329.40718,67.028997 331.00396,69.922397 334.35163,71.713994 C 345.39592,77.624735 363.40242,96.609365 370.17412,109.48243 C 376.23067,120.996 377.15978,125.91632 377.15978,146.47567 C 377.15978,167.03503 376.23067,171.95534 370.17412,183.46892 C 363.36177,196.41923 345.38153,215.3343 334.19022,221.32372 C 329.81755,223.66391 328.94361,225.9414 330.13413,231.89393 C 331.36161,238.03129 330.58905,239.81846 326.09145,241.24595 C 316.28789,244.35746 304.75081,255.92447 304.75081,262.64189 C 304.75081,266.13595 305.7399,268.99472 306.94881,268.99472 C 310.96596,268.99472 340.13316,247.58788 353.06782,235.14637 C 379.63122,209.59572 392.15498,182.81828 392.69051,150.4279 C 392.97151,133.43182 392.03847,129.00772 386.02221,118.81008 C 382.17495,112.28891 375.95019,104.07897 372.18941,100.56578 C 357.5351,86.876188 368.17927,82.178728 385.47063,94.704523 C 411.40839,113.49373 421.5897,133.94224 421.74254,167.55422 C 421.9078,203.90035 411.43956,231.47146 383.31843,268.75511 C 376.31322,278.0428 369.21726,290.1959 367.5496,295.762 C 365.88194,301.32808 363.02224,305.88218 361.19468,305.88218 C 359.36712,305.88218 351.31151,299.88641 343.29336,292.55827 C 329.15376,279.63549 328.4973,279.34835 321.48847,283.02063 L 314.26209,286.80691 L 325.06629,292.31882 C 331.00862,295.35036 338.35392,300.98785 341.3892,304.84659 C 347.45634,312.55971 348.70148,326.74802 343.74612,331.7034 C 335.11314,340.33638 318.81742,330.22653 321.20805,317.72081 C 322.24914,312.27462 321.03586,310.17085 315.07664,307.08922 C 310.99051,304.9762 306.9956,303.24736 306.19907,303.24736 C 302.98388,303.24736 305.03593,322.11018 309.20134,330.84519 C 313.47478,339.80668 313.43815,340.46551 308.28089,347.4022 C 300.48304,357.89052 286.24504,358.72826 278.70479,349.14239 z M 271.67971,183.46826 C 276.85842,163.57509 276.85894,144.94906 271.68153,119.88358 C 264.84175,86.77011 265.36813,87.334277 252.31564,99.12641 C 228.45196,120.68581 222.88548,149.7972 237.53644,176.4182 C 245.17444,190.29655 261.84101,204.93489 265.65388,201.1139 C 266.71961,200.04588 269.43123,192.10535 271.67971,183.46826 z M 335.84586,191.52951 C 350.40052,175.73957 357.44718,161.04904 357.44718,146.49601 C 357.44718,126.29873 344.04151,101.83466 328.59763,93.848312 L 321.09904,89.97065 L 316.78432,109.00131 C 309.53304,140.984 308.92431,155.77002 313.92681,178.41318 C 320.54908,208.38829 320.39241,208.29454 335.84586,191.52951 z"
     style="fill:#ffffff" />
</svg>

<svg xmlns="http://www.w3.org/2000/svg" viewBox="0 0 580 580"><path d="m66.28 1.768c-41.34 0-64.57 21.371-64.57 65.04v450.12c0 40.844 20.895 62.23 62.19 62.23h452.02c41.31 0 62.23-20.315 62.23-62.23v-450.12c0-42.601-20.922-65.04-63.52-65.04-.004 0-448.5-.143-448.35 0z" fill="#111" stroke="#eee" stroke-width="3.408"/><g stroke="#fff" stroke-linejoin="round" stroke-linecap="round" stroke-width="20.14"><path opacity=".25" fill="#fff" d="m207.06 373h168.92v168.92h-168.92z"/><path fill="none" d="m207.06 373h168.92v168.92h-168.92z"/></g><path d="m278.7 349.14c-6.592-8.38-6.884-11.535-1.703-18.385 3.623-4.79 5.76-27.51 2.588-27.51-.797 0-4.791 1.729-8.878 3.842-5.959 3.082-7.173 5.185-6.131 10.632 2.391 12.506-13.905 22.616-22.538 13.983-9.299-9.299.579-30.15 18.653-39.37l10.831-5.526-7.226-3.786c-7.01-3.672-7.665-3.385-21.805 9.538-14.833 13.557-22.06 16.583-22.06 9.241 0-6.118-7.117-18.963-21.09-38.07-24.335-33.27-34.994-62.47-35.11-96.17-.109-30.833 11.997-55.4 35.797-72.64 17.533-12.7 28.383-8.185 13.574 5.649-18.909 17.664-25.08 40.654-18.494 68.862 5.901 25.27 13.611 40.02 30.36 58.12 13.467 14.546 48.1 41.452 53.35 41.452 1.222 0 2.222-2.859 2.222-6.353 0-6.708-11.533-18.283-21.31-21.386-4.582-1.454-5.26-3.188-3.96-10.119 1.418-7.559.653-8.857-7.952-13.491-11.493-6.189-25.27-22.466-32.493-38.39-7.393-16.297-7.393-49.27 0-65.57 7.219-15.912 20.999-32.2 32.475-38.38 6.657-3.585 9.09-6.435 8.109-9.513-.937-2.953 2.839-8.161 11.51-15.874 7.098-6.314 14.981-14.74 17.518-18.725 6.147-9.656 9.468-9.15 18.469 2.817 4.163 5.534 12.163 13.518 17.778 17.742 6.928 5.211 9.815 9.186 8.983 12.368-.758 2.9.838 5.794 4.186 7.585 11.04 5.911 29.05 24.895 35.822 37.768 6.06 11.514 6.986 16.434 6.986 36.993 0 20.559-.929 25.48-6.986 36.993-6.812 12.95-24.793 31.865-35.984 37.855-4.373 2.34-5.247 4.618-4.056 10.57 1.227 6.137.455 7.925-4.04 9.352-9.804 3.112-21.341 14.679-21.341 21.396 0 3.494.989 6.353 2.198 6.353 4.02 0 33.18-21.407 46.12-33.848 26.563-25.551 39.09-52.33 39.623-84.72.281-16.996-.652-21.42-6.668-31.618-3.847-6.521-10.07-14.731-13.833-18.244-14.654-13.69-4.01-18.387 13.281-5.861 25.938 18.789 36.12 39.24 36.27 72.85.165 36.35-10.303 63.917-38.424 101.2-7.01 9.288-14.1 21.441-15.769 27.01-1.668 5.566-4.527 10.12-6.355 10.12-1.828 0-9.883-5.996-17.901-13.324-14.14-12.923-14.796-13.21-21.805-9.538l-7.226 3.786 10.804 5.512c5.942 3.03 13.288 8.669 16.323 12.528 6.067 7.713 7.312 21.901 2.357 26.857-8.633 8.633-24.929-1.477-22.538-13.983 1.041-5.446-.172-7.55-6.131-10.632-4.086-2.113-8.08-3.842-8.878-3.842-3.215 0-1.163 18.863 3 27.598 4.273 8.961 4.237 9.62-.92 16.557-7.798 10.488-22.04 11.326-29.576 1.74m-7.03-165.67c5.179-19.893 5.179-38.519.002-63.58-6.84-33.11-6.313-32.549-19.366-20.757-23.864 21.559-29.43 50.671-14.779 77.29 7.638 13.878 24.305 28.517 28.12 24.696 1.066-1.068 3.777-9.01 6.03-17.646m64.17 8.06c14.555-15.79 21.601-30.48 21.601-45.03 0-20.2-13.406-44.661-28.85-52.648l-7.499-3.878-4.315 19.03c-7.251 31.983-7.86 46.769-2.858 69.41 6.622 29.975 6.466 29.881 21.919 13.12" fill="#fff"/></svg>
